X: 1845
T: Argyle Bowling Green
R: reel
M: 4/4
K: Cmajor
C2c2cded|cBcA GFED|C2c2cded|1 cBcED4:|2 cBcED3A||
|:GEcE GEEA|GEcEG3A|GEcE GEEF|1 GEAE D3E:|2 GEAE DCDE||

